static/images/features-page/user-traits-steps.svg

<svg height="402" viewBox="0 0 50 402" width="50" xmlns="http://www.w3.org/2000/svg" xmlns:xlink="http://www.w3.org/1999/xlink"><defs><path id="a" d="m25 50c-13.8071187 0-25-11.1928813-25-25s11.1928813-25 25-25 25 11.1928813 25 25-11.1928813 25-25 25zm0-1c13.254834 0 24-10.745166 24-24s-10.745166-24-24-24-24 10.745166-24 24 10.745166 24 24 24z"/><path id="b" d="m25 50c-13.8071187 0-25-11.1928813-25-25s11.1928813-25 25-25 25 11.1928813 25 25-11.1928813 25-25 25zm0-1c13.254834 0 24-10.745166 24-24s-10.745166-24-24-24-24 10.745166-24 24 10.745166 24 24 24z"/><path id="c" d="m25 50c-13.8071187 0-25-11.1928813-25-25s11.1928813-25 25-25 25 11.1928813 25 25-11.1928813 25-25 25zm0-1c13.254834 0 24-10.745166 24-24s-10.745166-24-24-24-24 10.745166-24 24 10.745166 24 24 24z"/><mask id="d" fill="#fff"><use fill="#fff" fill-rule="evenodd" xlink:href="#a"/></mask><mask id="e" fill="#fff"><use fill="#fff" fill-rule="evenodd" xlink:href="#b"/></mask><mask id="f" fill="#fff"><use fill="#fff" fill-rule="evenodd" xlink:href="#c"/></mask></defs><g fill="none" fill-rule="evenodd"><path d="m23.3945312 28.9335938h1v352.2583912h-1z" fill="#c2d1d9" fill-rule="nonzero"/><g transform="translate(0 352)"><circle cx="25" cy="25" fill="#22354a" r="24" stroke="#2be3d6" stroke-width="2"/><use fill="#424b5a" xlink:href="#a"/><g fill="#22354a" mask="url(#d)"><path d="m0 0h50v50h-50z"/></g><path d="m23.992 33.315c-.3780019 0-.766498-.0244998-1.1655-.0735s-.7769982-.1119996-1.134-.189-.6824985-.1609995-.9765-.252-.5179992-.1784996-.672-.2625l.504-2.163c.2940015.1400007.7209972.2974991 1.281.4725s1.2529959.2625 2.079.2625c1.1060055 0 1.9039976-.2134979 2.394-.6405s.735-.9974964.735-1.7115c0-.4620023-.0944991-.8469985-.2835-1.155s-.4479984-.5564991-.777-.7455-.7069979-.3219996-1.134-.399-.8784976-.1155-1.3545-.1155h-.861v-2.058h1.05c.3220016 0 .6474984-.0314997.9765-.0945s.6264987-.1749992.8925-.336.4829992-.3744987.651-.6405.252-.6089979.252-1.029c0-.3360017-.0629994-.6229988-.189-.861s-.290499-.4339992-.4935-.588-.4374987-.2659997-.7035-.336-.5459985-.105-.84-.105c-.6300032 0-1.1899976.0944991-1.68.2835s-.9239981.4024988-1.302.6405l-.924-1.89c.196001-.1260006.4339986-.2589993.714-.399s.5914983-.2729994.9345-.399.710498-.2274996 1.1025-.3045.8049978-.1155 1.239-.1155c.8120041 0 1.5119971.097999 2.1.294s1.0744981.4724982 1.4595.8295.6719991.7769976.861 1.26.2835 1.0114971.2835 1.5855c0 .6720034-.1854981 1.2739973-.5565 1.806s-.8504971.9379986-1.4385 1.218c.7560038.2660013 1.3824975.7069969 1.8795 1.323s.7455 1.4069952.7455 2.373c0 .6440032-.1119989 1.2424972-.336 1.7955s-.5669977 1.028998-1.029 1.428-1.0464965.7139988-1.7535.945-1.5504951.3465-2.5305.3465z" fill="#a1aeb7" fill-rule="nonzero"/></g><g transform="translate(0 176)"><circle cx="25" cy="25" fill="#22354a" r="24" stroke="#2be3d6" stroke-width="2"/><use fill="#424b5a" xlink:href="#b"/><g fill="#22354a" mask="url(#e)"><path d="m0 0h50v50h-50z"/></g><path d="m29.137 22.227c0 .5040025-.104999.9974976-.315 1.4805s-.4794984.9519977-.8085 1.407-.7034979.8959979-1.1235 1.323-.8399979.843498-1.26 1.2495c-.2240011.2100011-.4759986.4619985-.756.756s-.5459987.5879985-.798.882-.4689991.5774986-.651.8505-.2799999.5004991-.294.6825h6.468v2.142h-9.261c-.0140001-.1120006-.021-.2484992-.021-.4095v-.3675c0-.6720034.1084989-1.2914972.3255-1.8585s.5004982-1.0954976.8505-1.5855c.3500017-.4900024.7419978-.9519978 1.176-1.386s.8679978-.8609979 1.302-1.281c.3360017-.3220016.6579985-.6369985.966-.945s.5774988-.6124985.8085-.9135.4164993-.6089984.5565-.924.21-.6404983.21-.9765c0-.7280036-.2099979-1.2459985-.63-1.554s-.930997-.462-1.533-.462c-.392002 0-.7559983.0559994-1.092.168s-.6334987.2449992-.8925.399-.486499.3114992-.6825.4725-.3429995.2904995-.441.3885l-1.26-1.785c.5880029-.5600028 1.277496-1.0114983 2.0685-1.3545s1.6414954-.5145 2.5515-.5145c1.5540078 0 2.6984963.3674963 3.4335 1.1025s1.1025 1.7394936 1.1025 3.0135z" fill="#a1aeb7" fill-rule="nonzero"/></g><circle cx="25" cy="25" fill="#22354a" r="24" stroke="#2be3d6" stroke-width="2"/><use fill="#424b5a" xlink:href="#c"/><g fill="#22354a" mask="url(#f)"><path d="m0 0h50v50h-50z"/></g><path d="m20.926 21.471c.8120041-.3220016 1.6274959-.7349975 2.4465-1.239s1.5434968-1.0989966 2.1735-1.785h1.785v14.553h-2.541v-11.151c-.3780019.2940015-.8539971.5809986-1.428.861s-1.1269973.5109991-1.659.693z" fill="#a1aeb7" fill-rule="nonzero"/></g></svg>

<?xml version="1.0" encoding="UTF-8"?>
<svg width="50px" height="402px" viewBox="0 0 50 402" version="1.1" xmlns="http://www.w3.org/2000/svg" xmlns:xlink="http://www.w3.org/1999/xlink">
    <!-- Generator: Sketch 55.1 (78136) - https://sketchapp.com -->
    <title>Steps</title>
    <desc>Created with Sketch.</desc>
    <defs>
        <path d="M25,50 C11.1928813,50 0,38.8071187 0,25 C0,11.1928813 11.1928813,0 25,0 C38.8071187,0 50,11.1928813 50,25 C50,38.8071187 38.8071187,50 25,50 Z M25,49 C38.254834,49 49,38.254834 49,25 C49,11.745166 38.254834,1 25,1 C11.745166,1 1,11.745166 1,25 C1,38.254834 11.745166,49 25,49 Z" id="path-1"></path>
        <path d="M25,50 C11.1928813,50 0,38.8071187 0,25 C0,11.1928813 11.1928813,0 25,0 C38.8071187,0 50,11.1928813 50,25 C50,38.8071187 38.8071187,50 25,50 Z M25,49 C38.254834,49 49,38.254834 49,25 C49,11.745166 38.254834,1 25,1 C11.745166,1 1,11.745166 1,25 C1,38.254834 11.745166,49 25,49 Z" id="path-3"></path>
        <path d="M25,50 C11.1928813,50 0,38.8071187 0,25 C0,11.1928813 11.1928813,0 25,0 C38.8071187,0 50,11.1928813 50,25 C50,38.8071187 38.8071187,50 25,50 Z M25,49 C38.254834,49 49,38.254834 49,25 C49,11.745166 38.254834,1 25,1 C11.745166,1 1,11.745166 1,25 C1,38.254834 11.745166,49 25,49 Z" id="path-5"></path>
    </defs>
    <g id="features-page" stroke="none" stroke-width="1" fill="none" fill-rule="evenodd">
        <g id="Artboard" transform="translate(-739.000000, -199.000000)">
            <g id="2" transform="translate(739.000000, 193.000000)">
                <g id="Steps" transform="translate(0.000000, 6.000000)">
                    <polygon id="Line" fill="#C2D1D9" fill-rule="nonzero" points="23.3945312 28.9335938 24.3945312 28.9335938 24.3945312 381.191985 23.3945312 381.191985"></polygon>
                    <g id="#3" transform="translate(0.000000, 352.000000)">
                        <g id="#1">
                            <circle id="Oval-3" stroke="#2BE3D6" stroke-width="2" fill="#22354A" cx="25" cy="25" r="24"></circle>
                            <g id="Group">
                                <mask id="mask-2" fill="white">
                                    <use xlink:href="#path-1"></use>
                                </mask>
                                <use id="Combined-Shape" fill="#424B5A" xlink:href="#path-1"></use>
                                <g id="Atoms-/-Colors-/-Gray-#2" mask="url(#mask-2)" fill="#22354A">
                                    <rect id="Atoms-/-Colors-/-Black" x="0" y="0" width="50" height="50"></rect>
                                </g>
                            </g>
                            <path d="M23.992,33.315 C23.6139981,33.315 23.225502,33.2905002 22.8265,33.2415 C22.427498,33.1924998 22.0495018,33.1295004 21.6925,33.0525 C21.3354982,32.9754996 21.0100015,32.8915005 20.716,32.8005 C20.4219985,32.7094995 20.1980008,32.6220004 20.044,32.538 L20.548,30.375 C20.8420015,30.5150007 21.2689972,30.6724991 21.829,30.8475 C22.3890028,31.0225009 23.0819959,31.11 23.908,31.11 C25.0140055,31.11 25.8119976,30.8965021 26.302,30.4695 C26.7920024,30.0424979 27.037,29.4720036 27.037,28.758 C27.037,28.2959977 26.9425009,27.9110015 26.7535,27.603 C26.5644991,27.2949985 26.3055016,27.0465009 25.9765,26.8575 C25.6474984,26.6684991 25.2695021,26.5355004 24.8425,26.4585 C24.4154979,26.3814996 23.9640024,26.343 23.488,26.343 L22.627,26.343 L22.627,24.285 L23.677,24.285 C23.9990016,24.285 24.3244984,24.2535003 24.6535,24.1905 C24.9825016,24.1274997 25.2799987,24.0155008 25.546,23.8545 C25.8120013,23.6934992 26.0289992,23.4800013 26.197,23.214 C26.3650008,22.9479987 26.449,22.6050021 26.449,22.185 C26.449,21.8489983 26.3860006,21.5620012 26.26,21.324 C26.1339994,21.0859988 25.969501,20.8900008 25.7665,20.736 C25.563499,20.5819992 25.3290013,20.4700003 25.063,20.4 C24.7969987,20.3299997 24.5170015,20.295 24.223,20.295 C23.5929968,20.295 23.0330024,20.3894991 22.543,20.5785 C22.0529976,20.7675009 21.6190019,20.9809988 21.241,21.219 L20.317,19.329 C20.513001,19.2029994 20.7509986,19.0700007 21.031,18.93 C21.3110014,18.7899993 21.6224983,18.6570006 21.9655,18.531 C22.3085017,18.4049994 22.675998,18.3035004 23.068,18.2265 C23.460002,18.1494996 23.8729978,18.111 24.307,18.111 C25.1190041,18.111 25.8189971,18.208999 26.407,18.405 C26.9950029,18.601001 27.4814981,18.8774982 27.8665,19.2345 C28.2515019,19.5915018 28.5384991,20.0114976 28.7275,20.4945 C28.9165009,20.9775024 29.011,21.5059971 29.011,22.08 C29.011,22.7520034 28.8255019,23.3539973 28.4545,23.886 C28.0834981,24.4180027 27.6040029,24.8239986 27.016,25.104 C27.7720038,25.3700013 28.3984975,25.8109969 28.8955,26.427 C29.3925025,27.0430031 29.641,27.8339952 29.641,28.8 C29.641,29.4440032 29.5290011,30.0424972 29.305,30.5955 C29.0809989,31.1485028 28.7380023,31.624498 28.276,32.0235 C27.8139977,32.422502 27.2295035,32.7374988 26.5225,32.9685 C25.8154965,33.1995012 24.9720049,33.315 23.992,33.315 Z" id="3" fill="#A1AEB7" fill-rule="nonzero"></path>
                        </g>
                    </g>
                    <g id="#2" transform="translate(0.000000, 176.000000)">
                        <g id="#1">
                            <circle id="Oval-3" stroke="#2BE3D6" stroke-width="2" fill="#22354A" cx="25" cy="25" r="24"></circle>
                            <g id="Group">
                                <mask id="mask-4" fill="white">
                                    <use xlink:href="#path-3"></use>
                                </mask>
                                <use id="Combined-Shape" fill="#424B5A" xlink:href="#path-3"></use>
                                <g id="Atoms-/-Colors-/-Gray-#2" mask="url(#mask-4)" fill="#22354A">
                                    <rect id="Atoms-/-Colors-/-Black" x="0" y="0" width="50" height="50"></rect>
                                </g>
                            </g>
                        </g>
                        <path d="M29.137,22.227 C29.137,22.7310025 29.032001,23.2244976 28.822,23.7075 C28.611999,24.1905024 28.3425016,24.6594977 28.0135,25.1145 C27.6844984,25.5695023 27.3100021,26.0104979 26.89,26.4375 C26.4699979,26.8645021 26.0500021,27.280998 25.63,27.687 C25.4059989,27.8970011 25.1540014,28.1489985 24.874,28.443 C24.5939986,28.7370015 24.3280013,29.0309985 24.076,29.325 C23.8239987,29.6190015 23.6070009,29.9024986 23.425,30.1755 C23.2429991,30.4485014 23.1450001,30.6759991 23.131,30.858 L29.599,30.858 L29.599,33 L20.338,33 C20.3239999,32.8879994 20.317,32.7515008 20.317,32.5905 L20.317,32.223 C20.317,31.5509966 20.4254989,30.9315028 20.6425,30.3645 C20.8595011,29.7974972 21.1429982,29.2690024 21.493,28.779 C21.8430017,28.2889976 22.2349978,27.8270022 22.669,27.393 C23.1030022,26.9589978 23.5369978,26.5320021 23.971,26.112 C24.3070017,25.7899984 24.6289985,25.4750015 24.937,25.167 C25.2450015,24.8589985 25.5144988,24.5545015 25.7455,24.2535 C25.9765012,23.9524985 26.1619993,23.6445016 26.302,23.3295 C26.4420007,23.0144984 26.512,22.6890017 26.512,22.353 C26.512,21.6249964 26.3020021,21.1070015 25.882,20.799 C25.4619979,20.4909985 24.951003,20.337 24.349,20.337 C23.956998,20.337 23.5930017,20.3929994 23.257,20.505 C22.9209983,20.6170006 22.6235013,20.7499992 22.3645,20.904 C22.1054987,21.0580008 21.878001,21.2154992 21.682,21.3765 C21.485999,21.5375008 21.3390005,21.6669995 21.241,21.765 L19.981,19.98 C20.5690029,19.4199972 21.258496,18.9685017 22.0495,18.6255 C22.840504,18.2824983 23.6909954,18.111 24.601,18.111 C26.1550078,18.111 27.2994963,18.4784963 28.0345,19.2135 C28.7695037,19.9485037 29.137,20.9529936 29.137,22.227 Z" id="2" fill="#A1AEB7" fill-rule="nonzero"></path>
                    </g>
                    <g id="#1"></g>
                    <g id="#1">
                        <circle id="Oval-3" stroke="#2BE3D6" stroke-width="2" fill="#22354A" cx="25" cy="25" r="24"></circle>
                        <g id="Group">
                            <mask id="mask-6" fill="white">
                                <use xlink:href="#path-5"></use>
                            </mask>
                            <use id="Combined-Shape" fill="#424B5A" xlink:href="#path-5"></use>
                            <g id="Atoms-/-Colors-/-Gray-#2" mask="url(#mask-6)" fill="#22354A">
                                <rect id="Atoms-/-Colors-/-Black" x="0" y="0" width="50" height="50"></rect>
                            </g>
                        </g>
                        <path d="M20.926,21.471 C21.7380041,21.1489984 22.5534959,20.7360025 23.3725,20.232 C24.1915041,19.7279975 24.9159968,19.1330034 25.546,18.447 L27.331,18.447 L27.331,33 L24.79,33 L24.79,21.849 C24.4119981,22.1430015 23.9360029,22.4299986 23.362,22.71 C22.7879971,22.9900014 22.2350027,23.2209991 21.703,23.403 L20.926,21.471 Z" id="1" fill="#A1AEB7" fill-rule="nonzero"></path>
                    </g>
                </g>
            </g>
        </g>
    </g>
</svg>
